X: 39953
T: Thoughts Of Carignan
R: reel
M: 4/4
K: Dmajor
dB|:AF (3DED B,DGB|Adfa Adfa|~g3e cded|cAAG EFGB|
AF (3DED B,DGB|Adfa Adfa|~g3e cded|1 cAGE D2 dB:|2 cAGE D2 FA||
|:GE~E2 B,EGB|AFdF Adfa|ge (3efe Bece|dFAd cdef|
gbeg ba^ga|FAdA GBef|1 gbed cAAG|FAGE D2 FA:|2 (3gab ed (3cde AG(3FGA GE D2 z2||

